dist/svgs/wall.svg

<svg xmlns="http://www.w3.org/2000/svg" viewBox="0 0 512 512"><path d="M458 14q23 0 38.5 15.5T512 67v378q0 23-15.5 38.5T458 499H54q-23 0-38.5-15.5T0 445V67q0-22 15.5-37.5T54 14h404zM216 170h134v-35H216v35zm-162 5h108V67H54v108zm404 54H54v216h404V229zm0-162H216v35h242V67z"/></svg>

<?xml version="1.0" encoding="UTF-8" standalone="no"?><svg   xmlns:svg="http://www.w3.org/2000/svg"   xmlns="http://www.w3.org/2000/svg"   version="1.1"   width="512"   height="512"   viewBox="0 0 512 512">  <path     d="M458 14Q481 14 496.5 29.5T512 67V445Q512 468 496.5 483.5T458 499H54Q31 499 15.5 483.5T0 445V67Q0 45 15.5 29.5T54 14H458zM216 170H350V135H216V170zM54 175H162V67H54V175zM458 229H54V445H458V229zM458 67H216V102H458V67z"     id="wall" /></svg>
